public/assets/icons/nurjazBlack.svg

<svg width="60" height="60" viewBox="0 0 60 60" fill="none" xmlns="http://www.w3.org/2000/svg">
<rect width="60" height="60" rx="30" fill="black"/>
<path fill-rule="evenodd" clip-rule="evenodd" d="M20.4894 30.4097L21.4685 30.4371L21.4883 18.3022C21.814 18.4226 22.3777 19.059 22.5781 19.2901L30.1374 26.6829C30.4461 26.5179 33.1922 23.7611 33.6898 23.3019C34.3313 22.7098 34.1626 22.6914 34.1466 21.5298C34.0084 21.585 32.3565 23.165 32.1667 23.3448C31.6493 23.8347 30.5903 25.0153 30.1374 25.2748C29.7261 25.0392 26.0202 21.2353 25.3401 20.5829C24.5036 19.7803 23.7418 19.0343 22.9053 18.2257C22.6779 18.0058 20.773 16.019 20.5012 15.9041L20.4894 30.4097Z" fill="white"/>
<path fill-rule="evenodd" clip-rule="evenodd" d="M24.761 42.8947L25.7657 42.8755L25.7637 34.075C27.4375 34.0716 30.4753 33.5745 30.5504 36.1452C30.6444 39.3657 26.9689 37.7612 26.5876 38.9616C27.5698 38.8899 27.5534 37.6789 29.1271 40.5689C30.4686 43.0325 29.9422 42.978 31.6115 42.8804C31.0835 42.1544 30.826 41.674 30.3486 40.7266C29.9615 39.9583 29.6137 39.2125 29.0293 38.6356L29.154 38.5677C29.1689 38.562 29.2009 38.546 29.2198 38.5397C29.2391 38.5333 29.2674 38.5238 29.2894 38.5175C29.364 38.4961 29.5632 38.4687 29.6669 38.446C30.3168 38.3031 30.9091 37.9778 31.2408 37.4362C31.7778 36.5596 31.6392 35.3882 31.0266 34.706C30.3548 33.9581 29.608 33.8737 28.2946 33.8772C27.1181 33.8804 25.941 33.8784 24.7646 33.8737L24.761 42.8947Z" fill="white"/>
<path fill-rule="evenodd" clip-rule="evenodd" d="M22.3826 41.3265L22.4069 42.8774L23.4146 42.8933L23.4056 33.8827L22.432 33.8748C22.2511 35.2702 22.4041 37.8592 22.4044 39.3727C22.4046 40.5526 22.5678 40.909 21.7943 41.5334C21.348 41.8937 20.533 42.2922 19.8617 42.4454C16.1149 43.3003 17.8201 38.6771 17.3726 33.8889L16.4301 33.873C16.2617 34.8539 16.3035 41.2692 16.6385 41.9077C17.3857 43.3314 19.7455 43.0402 21.1835 42.2136C21.7398 41.8938 21.9931 41.5669 22.3826 41.3265Z" fill="white"/>
<path fill-rule="evenodd" clip-rule="evenodd" d="M38.2453 34.3401C38.4399 34.5781 39.0553 36.0397 39.2327 36.449C40.0264 38.2798 40.9969 39.5055 40.0216 40.8729C38.2687 43.3302 34.93 41.7964 36.3366 38.4734C36.6291 37.7823 37.0415 37.138 37.3795 36.4801C37.9043 35.4591 38.151 34.51 38.2453 34.3401ZM40.6871 39.6979L42.121 42.8794L43.2087 42.89L39.1919 33.8767L38.0985 33.8763C37.6289 35.6689 37.3965 36.0766 36.5291 37.379C35.9574 38.2373 34.9415 39.7448 35.2653 41.1602C35.577 42.5227 36.9788 43.2481 38.5854 42.7522C40.0448 42.3017 40.324 41.2893 40.6871 39.6979Z" fill="white"/>
<path fill-rule="evenodd" clip-rule="evenodd" d="M8 42.8928L9.00486 42.9004C8.80322 40.8165 7.92807 36.1513 8.22701 34.1479C8.54575 34.4652 8.84588 34.7625 9.17659 35.0906C10.6889 36.591 12.5233 38.5396 13.6726 40.2647C13.9275 40.6472 14.1721 41.0173 14.3939 41.4759C14.7116 42.133 14.7806 42.6998 14.9348 42.8848C15.054 42.6581 15.0108 42.755 15.0236 42.419L14.9902 33.8875L14.0459 33.8765C14.0264 34.2462 14.6448 38.358 14.7177 39.8013C14.4723 39.6541 13.4814 38.3623 13.2296 38.0374L10.236 34.7664C9.37182 33.8732 9.70797 33.8807 8.03113 33.8715L8 42.8928Z" fill="white"/>
<path fill-rule="evenodd" clip-rule="evenodd" d="M44.2094 34.8684C46.1434 34.6292 46.8676 34.1263 49.6228 34.0878C49.3518 34.5715 47.0813 36.9652 46.3318 37.9692C45.441 39.1625 44.1213 40.8779 44.0958 42.8994L50.9547 42.896L50.9546 41.9303C49.3968 42.0534 48.1581 42.6834 45.2272 42.714C45.3105 40.9716 46.9015 38.8092 47.7074 37.8721L50.2503 34.8852C50.5412 34.5183 50.8405 34.2845 51.034 33.874H44.2556L44.2094 34.8684Z" fill="white"/>
<path fill-rule="evenodd" clip-rule="evenodd" d="M35.5141 26.6888L33.8475 24.99C33.5073 25.1332 33.2733 25.4411 33.0809 25.6134C33.2777 26.0695 34.1487 26.822 34.737 27.3983L36.4965 29.1445L36.5209 15.1412L35.5187 15.1506L35.5141 26.6888Z" fill="white"/>
<path fill-rule="evenodd" clip-rule="evenodd" d="M37.4565 19.4432C37.9256 19.2368 38.2977 18.4736 38.773 18.2997L38.7854 30.4311L39.7766 30.4266L39.7842 15.8991C39.4924 16.0219 38.5412 17.0835 38.3044 17.3186C37.4122 18.2046 37.4419 17.7319 37.4565 19.4432Z" fill="white"/>
<path fill-rule="evenodd" clip-rule="evenodd" d="M30.5433 44.0961C30.772 44.8202 32.1858 45.3288 33.1131 44.7474C34.0088 44.1858 33.8264 42.7798 33.8264 41.584C33.8264 40.3665 33.9008 34.5783 33.7926 33.8795L32.8524 33.879C32.6674 35.7122 33.054 42.9279 32.6851 43.9469C32.5284 44.3801 32.2523 44.6163 31.7051 44.6093C30.8941 44.599 30.9938 44.1169 30.5433 44.0961Z" fill="white"/>
<path fill-rule="evenodd" clip-rule="evenodd" d="M30.0237 22.6833C30.3641 22.5388 30.6379 22.2607 30.7954 21.9317C30.2154 21.4383 29.663 20.8003 29.0886 20.2428C28.5488 19.7189 24.1472 15.2339 23.7475 15C23.7584 16.8752 23.7923 16.4069 24.807 17.431C25.3526 17.9817 25.9032 18.5568 26.5325 19.2064L30.0237 22.6833Z" fill="white"/>
<path fill-rule="evenodd" clip-rule="evenodd" d="M23.7474 28.7413L24.7558 28.7466C24.7578 28.1629 24.8441 23.7277 24.6987 23.3698C24.631 23.2031 23.9376 22.5525 23.7792 22.4277L23.7474 28.7413Z" fill="white"/>
</svg>

<svg xmlns="http://www.w3.org/2000/svg" width="60" height="60" fill="none"><rect width="60" height="60" fill="#000" rx="30"/><path fill="#fff" fill-rule="evenodd" d="m20.49 30.41.979.027.02-12.135c.325.12.889.757 1.09.988l7.558 7.393c.31-.165 3.055-2.922 3.553-3.381.641-.592.473-.61.457-1.772-.139.055-1.79 1.635-1.98 1.815-.518.49-1.577 1.67-2.03 1.93-.41-.236-4.117-4.04-4.797-4.692-.836-.803-1.598-1.549-2.435-2.357-.227-.22-2.132-2.207-2.404-2.322zM24.761 42.895l1.005-.02-.002-8.8c1.674-.003 4.711-.5 4.786 2.07.094 3.22-3.581 1.616-3.962 2.817.982-.072.965-1.283 2.54 1.607 1.34 2.463.814 2.409 2.483 2.311-.527-.726-.785-1.206-1.262-2.153-.387-.769-.735-1.514-1.32-2.091l.125-.068c.015-.006.047-.022.066-.028l.07-.023c.074-.02.273-.048.377-.071.65-.143 1.242-.468 1.574-1.01.537-.876.398-2.048-.214-2.73-.672-.748-1.419-.832-2.732-.829q-1.766.004-3.53-.003zM22.383 41.327l.024 1.55 1.008.016-.01-9.01-.973-.008c-.18 1.395-.028 3.984-.028 5.498 0 1.18.164 1.536-.61 2.16-.446.36-1.261.76-1.932.912-3.747.855-2.042-3.768-2.49-8.556l-.942-.016c-.168.98-.127 7.396.209 8.035.747 1.423 3.107 1.132 4.544.306.557-.32.81-.647 1.2-.887M38.245 34.34c.195.238.81 1.7.988 2.109.793 1.83 1.764 3.057.789 4.424-1.753 2.457-5.092.923-3.685-2.4.292-.69.704-1.335 1.042-1.993.525-1.02.772-1.97.866-2.14m2.442 5.358 1.434 3.181 1.088.011-4.017-9.013h-1.093c-.47 1.792-.702 2.2-1.57 3.502-.572.858-1.588 2.366-1.264 3.781.312 1.363 1.714 2.088 3.32 1.592 1.46-.45 1.739-1.463 2.102-3.054M8 42.893l1.005.007c-.202-2.084-1.077-6.749-.778-8.752l.95.943c1.512 1.5 3.346 3.449 4.496 5.174.255.382.5.752.72 1.21.319.658.388 1.225.542 1.41.119-.227.076-.13.089-.466l-.034-8.531-.944-.011c-.02.37.599 4.481.672 5.924-.246-.147-1.237-1.439-1.488-1.764l-2.994-3.27c-.864-.894-.528-.886-2.205-.896zM44.21 34.868c1.933-.239 2.658-.742 5.413-.78-.271.483-2.542 2.877-3.291 3.881-.891 1.194-2.21 2.909-2.236 4.93l6.859-.003v-.966c-1.558.123-2.797.753-5.728.784.084-1.742 1.675-3.905 2.48-4.842l2.543-2.987c.291-.367.59-.6.784-1.011h-6.778z" clip-rule="evenodd"/><path fill="#fff" fill-rule="evenodd" d="m35.514 26.689-1.667-1.699c-.34.143-.574.451-.766.623.197.457 1.068 1.209 1.656 1.785l1.76 1.747.024-14.004-1.002.01zM37.457 19.443c.469-.206.84-.97 1.316-1.143l.012 12.131.992-.004.007-14.528c-.292.123-1.243 1.185-1.48 1.42-.892.886-.862.413-.848 2.124M30.543 44.096c.229.724 1.643 1.233 2.57.651.896-.561.713-1.967.713-3.163 0-1.218.075-7.006-.033-7.705h-.94c-.186 1.833.201 9.049-.168 10.068-.157.433-.433.67-.98.662-.81-.01-.711-.492-1.162-.513M30.024 22.683c.34-.144.614-.422.771-.751-.58-.494-1.132-1.132-1.706-1.69-.54-.523-4.942-5.008-5.341-5.242.01 1.875.044 1.407 1.059 2.431.546.55 1.096 1.126 1.726 1.775zM23.747 28.741l1.009.006c.002-.584.088-5.02-.057-5.377-.068-.167-.761-.818-.92-.942z" clip-rule="evenodd"/></svg>
